!!!COM: Music21
!!!OTL: reel_Phil-Cunninghams
!!!OMV: reel_Phil-Cunninghams
**kern
*clefG2
*k[f#c#g#]
*A:
*M4/4
=1
4A
8c#L
8eJ
4a
8cc#L
8aJ
=
8bL
8aJ
8g#L
8bJ
8aL
8cc#J
8eeL
8aaJ
=
8ff#L
8eeJ
8ddL
8cc#J
8ddL
8cc#J
8bL
8aJ
=
4cc#
4b
4b
4cc#
=
4A
8c#L
8eJ
4a
8cc#L
8aJ
=
8bL
8aJ
8g#L
8bJ
8aL
8cc#J
8eeL
8aaJ
!!linebreak:original
=
8ff#L
8eeJ
8ddL
8cc#J
8ddL
8cc#J
8bL
8aJ
=
4e
4a
4a
8c#L
8BJ
=||
*M4/4
4A
8c#L
8eJ
4a
8cc#L
8aJ
=
8bL
8aJ
8g#L
8bJ
8aL
8cc#J
8eeL
8aaJ
=
8ff#L
8eeJ
8ddL
8cc#J
8ddL
8cc#J
8bL
8aJ
!!linebreak:original
=
4cc#
4b
4b
4cc#
=
4A
8c#L
8eJ
4a
8cc#L
8aJ
=
8bL
8aJ
8g#L
8bJ
8aL
8cc#J
8eeL
8aaJ
=
8ff#L
8eeJ
8ddL
8cc#J
8ddL
8cc#J
8bL
8aJ
=
4e
4a
4a
8cc#L
8ddJ
=||
8eeL
8aJ
8cc#L
8eeJ
8aaL
8aJ
8cc#L
8eeJ
!!linebreak:original
=
4ff#
4dd
4dd
8bL
8cc#J
=
8ddL
8bJ
8ddL
8ff#J
8bbL
8bJ
8ddL
8ff#J
=
4gg#
4ee
4ee
8cc#L
8ddJ
=
8eeL
8aJ
8cc#L
8eeJ
8ff#L
8aJ
8ddL
8ff#J
=
8gg#L
8bJ
8eeL
8gg#J
4aa
8gg#L
8ff#J
=
8eeL
8aaJ
8gg#L
8ff#J
8eeL
8cc#J
8ddL
8bJ
!!linebreak:original
=
4cc#
4a
4a
8cc#L
8ddJ
=||
8eeL
8aJ
8cc#L
8eeJ
8aaL
8aJ
8cc#L
8eeJ
=
4ff#
4dd
4dd
8bL
8cc#J
=
8ddL
8bJ
8ddL
8ff#J
8bbL
8bJ
8ddL
8ff#J
=
4gg#
4ee
4ee
8cc#L
8ddJ
=
8eeL
8aJ
8cc#L
8eeJ
8ff#L
8aJ
8ddL
8ff#J
!!linebreak:original
=
8gg#L
8bJ
8eeL
8gg#J
4aa
8gg#L
8ff#J
=
8eeL
8aaJ
8gg#L
8ff#J
8eeL
8cc#J
8ddL
8bJ
=
4cc#
4a
2a
=||
*-
